assets/img/icons/quill.svg

<svg class="menu_mobile-only menu__list__item__icon menu__list__item__icon_quill" viewBox="0 0 71 78" xmlns="http://www.w3.org/2000/svg">
    <path d="M69.386456,0 C36.5809541,0 9.5975839,25.2374568 6.7382555,57.310162 C12.189148,49.622758 18.8664611,42.22581 27.2025507,33.7219513 C27.8221903,33.082948 28.8484685,33.0700892 29.484295,33.6994107 C30.1201215,34.3222273 30.1298034,35.3453286 29.5068356,35.9811551 C28.2513694,37.259162 26.9766908,38.585578 25.6953559,39.928181 C24.9627107,40.693049 24.2462524,41.454739 23.542804,42.20342 C23.4137629,42.342143 23.2845704,42.481018 23.1555292,42.622918 C12.8540201,53.653744 5.4892943,63.25483 0.1415742,75.179716 C-0.2231599,75.992993 0.1415742,76.948322 0.9516744,77.312905 C1.1678524,77.409723 1.3905354,77.454956 1.6132184,77.454956 C2.2296812,77.454956 2.8202752,77.099903 3.0880394,76.502956 C4.9921908,72.25912 7.2028339,68.321776 9.6878975,64.490933 C32.2272897,63.913197 52.743171,51.375176 63.496551,31.4241714 C63.764467,30.9238911 63.751457,30.3204383 63.461001,29.8298398 C63.167368,29.3457463 62.641219,29.0456084 62.073316,29.0456084 L56.096426,29.0456084 L66.814256,22.9201619 C67.153121,22.7265245 67.414531,22.4135278 67.540396,22.0456168 C69.838176,15.3651268 71,8.4909995 71,1.6136953 C71,0.7229633 70.277188,0 69.386456,0 Z"></path>
</svg>

<svg class="menu_mobile-only menu__list__item__icon menu__list__item__icon_quill" viewBox="0 0 71 78" xmlns="http://www.w3.org/2000/svg"><path d="M69.386 0C36.581 0 9.598 25.237 6.738 57.31c5.451-7.687 12.128-15.084 20.465-23.588a1.615 1.615 0 0 1 2.304 2.26 382.092 382.092 0 0 0-3.812 3.946c-.732.765-1.449 1.527-2.152 2.275-.13.14-.258.278-.387.42C12.854 53.653 5.489 63.255.142 75.18a1.616 1.616 0 0 0 2.946 1.323c1.904-4.244 4.115-8.181 6.6-12.012a62.885 62.885 0 0 0 53.809-33.067c.267-.5.254-1.104-.036-1.594a1.626 1.626 0 0 0-1.388-.784h-5.977l10.718-6.126c.34-.193.6-.506.726-.874C69.838 15.366 71 8.49 71 1.614 71 .723 70.277 0 69.386 0z"/></svg>
